X:324
T:Oliphant of Condie's Welcome Home, The
S:Richard Oliphant of Condie
B:BL Add MS 25073, f 44b
N:Written for harpsichord and dated c.1800
Z:Nigel Gatherer
L:1/8
M:6/8
K:A
e/d/|c>BA AEA|AEA Aed|c>d/e/f/ ecB/A/|GBB B2 e/d/|
c>BA AEA|AEA Aae|f>ed c>B/c/d/|cAA A2:|
(3e/f/g/|aef/g/ fed|cea ecA|dfd ced/e/|fdB B2f/g/|
aef/g/ fed|cea/f/ ecA|EAc Bed|cAA A2 f/g/|
aef/g/ fed|cea/f/ ecA|d/e/fd c/e/ac|fdB B2 e/d/|
c>BA AEA|AEA Aae|f>ed ceB|cAA A2|]
